X:1
T:The Wee Wee Man
M:6/8
L:1/8
K:F
 e| f3/2 e/2 dd-c A| f3/2- e/2 fF-G A| f3/2- e/2 dd-c A|c-A G G2 e|\
f-e dd-c A|f-e f g2 a| f3/2 e/2 dd-e f|c-A G G2A/2-B/2| c2 A c2 A|\
f-e fF-G A| c2 A c2 f|d-B GG-A B| c2 A c2 A|f-e f g2 a/2g/2| f3/2- e/2 dd-e f|\
c-A G G2||

